X: 3335
T: Kikdansen
B:[[Notböcker/Melodier til gamle danske Almuedanse for Violin solo]]
O:Danmark
Z:Søren Bak Vestergaard
M: 2/4
L: 1/8
K: D
defg|(3(agf) e2|fddd|(3(edc) A2|defg|(3(agf) e2|fd ec|d2 d2:|\
|:d2 (3(ABc)|d2 (3(ABc)|defe|dcBA|d2 (3(ABc)|d2 (3(ABc)|defe|d2 d2:|
(:musicend:)
(:music:)
